packages/kaspersky-hexa-ui-icons/src/iconsSVGs/28x20/FlagCna.svg

<svg width="28" height="20" viewBox="0 0 28 20" fill="none" xmlns="http://www.w3.org/2000/svg">
<g clip-path="url(#clip0_5138_2178)">
<rect width="28" height="20" rx="2" fill="white"/>
<mask id="mask0_5138_2178" style="mask-type:luminance" maskUnits="userSpaceOnUse" x="0" y="0" width="28" height="20">
<rect width="28" height="20" rx="2" fill="white"/>
</mask>
<g mask="url(#mask0_5138_2178)">
<rect width="28" height="20" fill="#19BFBF"/>
<path fill-rule="evenodd" clip-rule="evenodd" d="M13.3333 14.6667L12.7588 13.5176C12.7023 13.4047 12.5869 13.3334 12.4607 13.3334H12.1381C12.0497 13.3334 11.9649 13.2982 11.9024 13.2357L9.43096 10.7643C9.36845 10.7018 9.33333 10.617 9.33333 10.5286V9.47143C9.33333 9.38302 9.29821 9.29823 9.2357 9.23572L8.06529 8.06531C8.02257 8.02259 7.99226 7.96906 7.97761 7.91045L7.37771 5.51087C7.35007 5.40031 7.26786 5.31153 7.15974 5.27549L5.35581 4.67418C5.34084 4.66919 5.32625 4.66315 5.31215 4.65609L4.18426 4.09215C4.07133 4.03569 4 3.92027 4 3.79401V3.00002C4 2.81593 4.14924 2.66669 4.33333 2.66669H5.19526C5.28367 2.66669 5.36845 2.70181 5.43096 2.76432L5.90237 3.23572C5.96488 3.29823 6.04967 3.33335 6.13807 3.33335H7.19526C7.28367 3.33335 7.36845 3.29823 7.43096 3.23572L7.90237 2.76432C7.96488 2.70181 8.04967 2.66669 8.13807 2.66669H10.588C10.6397 2.66669 10.6908 2.67874 10.737 2.70188L11.9296 3.29816C11.9759 3.32131 12.0269 3.33335 12.0787 3.33335H13.2546C13.3064 3.33335 13.3574 3.32131 13.4037 3.29816L14.5963 2.70188C14.6426 2.67874 14.6936 2.66669 14.7454 2.66669H17C17.1841 2.66669 17.3333 2.81593 17.3333 3.00002V3.66669C17.3333 3.85078 17.1841 4.00002 17 4.00002H16.3333C16.1492 4.00002 16 4.14926 16 4.33335V5.79401C16 5.92027 16.0713 6.03569 16.1843 6.09215L16.8509 6.42548C17.0726 6.5363 17.3333 6.37514 17.3333 6.12734V5.00002C17.3333 4.81593 17.4826 4.66669 17.6667 4.66669H19C19.1841 4.66669 19.3333 4.81593 19.3333 5.00002C19.3333 5.18412 19.4826 5.33335 19.6667 5.33335H21C21.1841 5.33335 21.3333 5.48259 21.3333 5.66669V6.61259C21.3333 6.64842 21.3276 6.68401 21.3162 6.718L20.6915 8.59204C20.6752 8.64113 20.6476 8.68574 20.611 8.72233L18.7049 10.6284C18.6796 10.6538 18.6585 10.683 18.6425 10.7151L18.0352 11.9296C18.012 11.9759 18 12.027 18 12.0787V13C18 13.1841 17.8508 13.3334 17.6667 13.3334H17.5393C17.4131 13.3334 17.2977 13.262 17.2412 13.1491L16.7588 12.1843C16.7023 12.0714 16.5869 12 16.4607 12H14.8727C14.7464 12 14.631 12.0714 14.5745 12.1843L14.0745 13.1843C14.0276 13.2781 14.0276 13.3886 14.0745 13.4824L14.5745 14.4824C14.631 14.5954 14.7464 14.6667 14.8727 14.6667H15.8619C15.9503 14.6667 16.0351 14.7018 16.0976 14.7643L17.2357 15.9024C17.2982 15.9649 17.3333 16.0497 17.3333 16.1381V17C17.3333 17.1841 17.1841 17.3334 17 17.3334H16.206C16.0798 17.3334 15.9643 17.262 15.9079 17.1491L15.4255 16.1843C15.369 16.0714 15.2536 16 15.1273 16H14.206C14.0798 16 13.9643 15.9287 13.9079 15.8158L13.3333 14.6667Z" fill="white"/>
</g>
</g>
<defs>
<clipPath id="clip0_5138_2178">
<rect width="28" height="20" fill="white"/>
</clipPath>
</defs>
</svg>

<svg xmlns="http://www.w3.org/2000/svg" width="28" height="20" fill="none" viewBox="0 0 28 20"><g clip-path="url(#a)"><rect width="28" height="20" fill="#fff" rx="2"/><mask id="b" width="28" height="20" x="0" y="0" maskUnits="userSpaceOnUse" style="mask-type:luminance"><rect width="28" height="20" fill="#fff" rx="2"/></mask><g mask="url(#b)"><path fill="#19bfbf" d="M0 0h28v20H0z"/><path fill="#fff" fill-rule="evenodd" d="m13.3333 14.6667-.5745-1.1491a.333.333 0 0 0-.2981-.1842h-.3226a.333.333 0 0 1-.2357-.0977L9.431 10.7643a.333.333 0 0 1-.0977-.2357V9.4714a.333.333 0 0 0-.0976-.2357L8.0653 8.0653a.333.333 0 0 1-.0877-.1549L7.3777 5.511a.333.333 0 0 0-.218-.2354l-1.8039-.6013a.3.3 0 0 1-.0437-.0181l-1.1278-.564A.333.333 0 0 1 4 3.7942V3a.3333.3333 0 0 1 .3333-.3334h.862a.333.333 0 0 1 .2357.0976l.4714.4714a.333.333 0 0 0 .2357.0976h1.0572a.333.333 0 0 0 .2357-.0976l.4714-.4714a.333.333 0 0 1 .2357-.0976h2.4499a.33.33 0 0 1 .149.0352l1.1926.5963a.33.33 0 0 0 .1491.0351h1.1759a.33.33 0 0 0 .1491-.0351l1.1926-.5963a.33.33 0 0 1 .1491-.0352H17A.3333.3333 0 0 1 17.3333 3v.6667A.3333.3333 0 0 1 17 4h-.6667A.3333.3333 0 0 0 16 4.3334V5.794c0 .1263.0713.2417.1843.2982l.6666.3333c.2217.1108.4824-.0504.4824-.2982V5c0-.184.1493-.3333.3334-.3333H19A.3333.3333 0 0 1 19.3333 5c0 .1841.1493.3334.3334.3334H21a.3333.3333 0 0 1 .3333.3333v.9459a.33.33 0 0 1-.0171.1054l-.6247 1.874a.33.33 0 0 1-.0805.1303l-1.9061 1.9061a.33.33 0 0 0-.0624.0867l-.6073 1.2145a.33.33 0 0 0-.0352.1491V13a.3334.3334 0 0 1-.3333.3334h-.1274a.334.334 0 0 1-.2981-.1843l-.4824-.9648A.334.334 0 0 0 16.4607 12h-1.588a.334.334 0 0 0-.2982.1843l-.5 1a.333.333 0 0 0 0 .2981l.5 1a.333.333 0 0 0 .2982.1843h.9892a.333.333 0 0 1 .2357.0976l1.1381 1.1381a.333.333 0 0 1 .0976.2357V17a.3334.3334 0 0 1-.3333.3334h-.794a.333.333 0 0 1-.2981-.1843l-.4824-.9648A.334.334 0 0 0 15.1273 16h-.9213a.333.333 0 0 1-.2981-.1842z" clip-rule="evenodd"/></g></g><defs><clipPath id="a"><path fill="#fff" d="M0 0h28v20H0z"/></clipPath></defs></svg>
